X:32
T:Castle Kelly
R:Reel
S:Xerox of uncertain origin
B:?
Z:Transcription, chords:Mike Long
M:C|
L:1/8
K:G
"Am"A2 cA A2 cA|"G"GBEG G2 EG|\
"Am"A2 cA "G"GAcd|"(Em)"egdB cAAG|\
"Am"A2 cA A2 cA|"G"GBEG G2 EG|
"Am"A2 cA "G"GAcd|"(Em)"egdB cA A2:|\
|:"A"age^c "D"d2 ed|"Am"=cAGE "G"G3 e|"A"age^c "D"d2 =cd|
"Em"eaab a2 b2|"A"age^c "D"d2 ed|\
"Am"=cAGE "G"G2 EG|"Am"A2 cA "G"GAcd|"(Em)"egdB cA A2:|
